src/icons/marketplaces/uF041-market-cgtrader-square.svg

<svg xmlns="http://www.w3.org/2000/svg" viewBox="0 0 1024 1024"><path d="M533.49072,713.155c42.69824,0,69.17017-17.82764,69.17017-45.46045S566.55981,633.822,566.55981,633.822H495.24927c-16.93628,10.251-25.84985,26.74146-25.84985,43.67773S490.79248,713.155,533.49072,713.155Z"/><circle cx="533.49078" cy="435.45215" r="51.85504"/><path d="M960,0H64A64,64,0,0,0,0,64V960a64,64,0,0,0,64,64H960a64,64,0,0,0,64-64V64A64,64,0,0,0,960,0ZM277.3064,589.30688c30.998,0,59.8186-19.55737,70.93481-28.10547a4.5454,4.5454,0,0,1,7.106,2.26855c2.34595,6.79761,5.78149,18.03687,6.64063,27.7207.90039,10.1499-.82715,20.94092-2.05127,26.905a18.81979,18.81979,0,0,1-4.82544,9.25391c-8.49438,8.86206-32.96606,27.41992-88.947,27.41992C130.67407,654.76953,128,517.051,128,492.761c0-24.29028,2.67407-162.00879,138.16406-162.00879,55.981,0,80.45264,18.55811,88.947,27.42017a18.819,18.819,0,0,1,4.82544,9.25366c1.22412,5.96411,2.95166,16.75513,2.05127,26.905-.85913,9.68384-4.29468,20.9231-6.64062,27.7207a4.54539,4.54539,0,0,1-7.106,2.26855c-11.11621-8.5481-39.93677-28.10547-70.93481-28.10547-39.6665,0-68.63647,38.48877-68.63647,96.54614S237.63989,589.30688,277.3064,589.30688ZM854.55078,587.916c14.262,0,31.94092-6.68555,31.94092-6.68555,12.67773,0,12.67773,60.91138,0,60.91138,0,0-15.00488,9.95361-50.66016,9.95361s-93.14941-9.80518-93.14941-80.67017V403.8457H648.03857a91.46781,91.46781,0,0,1,5.41113,31.00366c0,57.491-53.70752,104.09668-119.959,104.09668a135.09867,135.09867,0,0,1-49.49463-9.24731c-5.30908,4.44214-10.73437,11.49976-10.73437,21.81885,0,12.59741,12.011,21.26563,21.05664,26.009,22.81567-.16968,63.19238-.376,78.4812.13843,21.15918.71167,107.85718,6.53687,107.85718,82.00708s-70.2981,104.58911-147.166,104.58911-139.85889-19.01636-139.85889-77.25342c0-35.93872,25.34351-58.06738,44.75317-69.748-13.25537-7.24-32.27393-23.08936-32.27393-54.45093,0-29.50708,20.60938-49.15747,36.562-59.95-18.158-18.24219-29.14136-42.01221-29.14136-68.00952,0-57.491,53.70752-104.09717,119.959-104.09717a135.838,135.838,0,0,1,43.71484,7.1311H742.68213V269.24683c0-12.67725,76.65845-12.67725,76.65845,0V337.8833H886.4917c12.67773,0,12.67773,65.9624,0,65.9624H819.34058V557.16333C819.34058,583.01318,840.28857,587.916,854.55078,587.916Z"/></svg>

<svg xmlns="http://www.w3.org/2000/svg" viewBox="0 0 1024 1024" role="img"><path d="M533.49 713.155c42.699 0 69.17-17.828 69.17-45.46s-36.1-33.873-36.1-33.873h-71.31c-16.937 10.251-25.85 26.741-25.85 43.678s21.392 35.655 64.09 35.655z"/><circle cx="533.491" cy="435.452" r="51.855"/><path d="M960 0H64A64 64 0 000 64v896a64 64 0 0064 64h896a64 64 0 0064-64V64a64 64 0 00-64-64zM277.306 589.307c30.998 0 59.819-19.557 70.935-28.106a4.545 4.545 0 017.106 2.269c2.346 6.798 5.782 18.037 6.64 27.72.901 10.15-.826 20.942-2.05 26.906a18.82 18.82 0 01-4.826 9.254c-8.494 8.862-32.966 27.42-88.947 27.42C130.674 654.77 128 517.05 128 492.76c0-24.29 2.674-162.009 138.164-162.009 55.981 0 80.453 18.558 88.947 27.42a18.819 18.819 0 014.826 9.254c1.224 5.964 2.951 16.755 2.05 26.905-.858 9.684-4.294 20.923-6.64 27.72a4.545 4.545 0 01-7.106 2.27c-11.116-8.549-39.937-28.106-70.935-28.106-39.666 0-68.636 38.489-68.636 96.546s28.97 96.546 68.636 96.546zm577.245-1.391c14.262 0 31.94-6.686 31.94-6.686 12.678 0 12.678 60.912 0 60.912 0 0-15.004 9.953-50.66 9.953s-93.149-9.805-93.149-80.67v-167.58H648.04a91.468 91.468 0 015.41 31.004c0 57.491-53.707 104.097-119.958 104.097a135.099 135.099 0 01-49.495-9.247c-5.309 4.442-10.734 11.5-10.734 21.819 0 12.597 12.01 21.265 21.056 26.009 22.816-.17 63.193-.376 78.482.138 21.159.712 107.857 6.537 107.857 82.007s-70.298 104.59-147.166 104.59-139.86-19.017-139.86-77.254c0-35.939 25.344-58.068 44.754-69.748-13.255-7.24-32.274-23.09-32.274-54.451 0-29.507 20.61-49.158 36.562-59.95-18.158-18.242-29.141-42.012-29.141-68.01 0-57.49 53.707-104.097 119.959-104.097a135.838 135.838 0 0143.715 7.131h165.476v-68.636c0-12.677 76.659-12.677 76.659 0v68.636h67.15c12.678 0 12.678 65.963 0 65.963h-67.15v153.317c0 25.85 20.948 30.753 35.21 30.753z"/></svg>
